priv/static/images/frameworks/nest.svg

<svg
  width="130"
  height="128"
  viewBox="0 0 130 128"
  fill="none"
  xmlns="http://www.w3.org/2000/svg"
>
  <path
    d="M76.3999 0.299805C75.4999 0.299805 74.5999 0.499805 73.7999 0.799805C75.4999 1.8998 76.3999 3.3998 76.8999 5.0998C76.8999 5.2998 76.9999 5.4998 76.9999 5.6998C76.9999 5.8998 77.0999 6.0998 77.0999 6.2998C77.1999 9.1998 76.2999 9.5998 75.6999 11.2998C74.6999 13.4998 74.9999 15.8998 76.1999 17.7998C76.2999 17.9998 76.3999 18.2998 76.5999 18.4998C75.2999 10.0998 82.2999 8.89981 83.5999 6.2998C83.6999 3.9998 81.7999 2.4998 80.2999 1.3998C78.7999 0.499805 77.5999 0.299805 76.3999 0.299805ZM86.8999 2.0998C86.7999 2.8998 86.8999 2.6998 86.7999 3.0998C86.7999 3.3998 86.7999 3.6998 86.6999 3.9998C86.5999 4.2998 86.5999 4.4998 86.4999 4.7998C86.3999 5.0998 86.2999 5.2998 86.1999 5.5998C86.0999 5.7998 85.9999 5.9998 85.8999 6.2998C85.7999 6.3998 85.6999 6.5998 85.5999 6.6998C85.4999 6.7998 85.4999 6.8998 85.3999 6.9998C85.1999 7.1998 85.0999 7.4998 84.8999 7.6998L84.2999 8.2998C84.0999 8.4998 83.8999 8.6998 83.6999 8.7998C82.9999 9.2998 82.1999 9.6998 81.4999 10.1998C81.2999 10.3998 80.9999 10.4998 80.7999 10.6998C80.5999 10.8998 80.3999 10.9998 80.1999 11.1998L79.5999 11.7998C79.3999 11.9998 79.1999 12.1998 79.0999 12.4998C78.8999 12.6998 78.7999 12.9998 78.5999 13.1998C78.4999 13.4998 78.3999 13.6998 78.1999 13.9998C78.0999 14.2998 77.9999 14.4998 77.8999 14.7998C77.7999 15.0998 77.6999 15.3998 77.6999 15.5998C77.6999 15.6998 77.6999 15.8998 77.5999 15.9998C77.5999 16.0998 77.5999 16.2998 77.4999 16.3998V17.7998C77.4999 18.0998 77.4999 18.2998 77.5999 18.5998C77.5999 18.8998 77.6999 19.0998 77.7999 19.3998C77.8999 19.6998 77.9999 19.8998 78.0999 20.1998C78.1999 20.3998 78.2999 20.4998 78.2999 20.6998L70.6999 17.7998C69.3999 17.3998 68.1999 17.0998 66.8999 16.7998C66.1999 16.5998 65.4999 16.4998 64.7999 16.2998C62.7999 15.8998 60.7999 15.5998 58.7999 15.3998H58.5999C56.5999 15.1998 54.6999 15.0998 52.6999 15.0998C51.1999 15.0998 49.7999 15.1998 48.3999 15.2998C46.3999 15.3998 44.3999 15.6998 42.3999 15.9998L40.8999 16.2998C39.8999 16.4998 38.8999 16.6998 37.8999 16.9998C37.3999 17.0998 36.8999 17.2998 36.3999 17.3998C35.8999 17.5998 35.3999 17.7998 34.9999 17.9998C34.5999 18.1998 34.2999 18.2998 33.8999 18.4998C33.7999 18.4998 33.7999 18.4998 33.6999 18.5998C33.3999 18.7998 33.0999 18.8998 32.7999 19.0998C32.6999 19.0998 32.5999 19.1998 32.5999 19.1998C32.1999 19.3998 31.8999 19.5998 31.5999 19.6998C31.3999 19.7998 31.0999 19.8998 30.8999 19.9998C30.7999 20.0998 30.6999 20.0998 30.5999 20.1998C30.2999 20.3998 29.9999 20.4998 29.6999 20.6998C29.3999 20.8998 29.0999 20.9998 28.8999 21.1998C28.6999 21.3998 28.3999 21.4998 28.1999 21.6998C28.1999 21.6998 28.0999 21.6998 28.0999 21.7998C27.8999 21.8998 27.6999 22.0998 27.4999 22.2998L27.3999 22.3998C27.1999 22.4998 27.0999 22.6998 26.8999 22.7998C26.7999 22.7998 26.7999 22.8998 26.6999 22.8998C26.4999 22.9998 26.3999 23.1998 26.1999 23.2998C26.1999 23.3998 26.0999 23.3998 26.0999 23.3998L25.4999 23.9998L25.3999 24.0998L24.7999 24.6998C24.7999 24.6998 24.7999 24.7998 24.6999 24.7998L24.1999 25.2998C24.0999 25.3998 23.9999 25.3998 23.9999 25.4998L23.3999 26.0998C23.3999 26.1998 23.2999 26.1998 23.2999 26.2998L22.4999 27.0998L22.3999 27.1998C21.8999 27.7998 21.2999 28.2998 20.6999 28.7998C20.0999 29.2998 19.4999 29.7998 18.7999 30.2998C18.0999 30.7998 17.4999 31.1998 16.7999 31.5998C16.0999 31.9998 15.3999 32.2998 14.6999 32.5998C13.9999 32.8998 13.2999 33.1998 12.5999 33.3998C11.1999 33.6998 9.7999 34.2998 8.5999 34.3998C8.5999 33.8998 8.2999 33.9998 7.9999 33.9998C7.6999 34.0998 7.3999 34.0998 7.1999 34.1998C6.8999 34.2998 6.6999 34.3998 6.3999 34.4998C6.0999 34.5998 5.8999 34.6998 5.5999 34.8998C5.3999 35.0998 5.0999 35.1998 4.8999 35.3998C4.6999 35.5998 4.3999 35.7998 4.1999 35.9998C3.9999 36.1998 3.6999 36.3998 3.4999 36.5998C3.2999 36.7998 3.0999 36.9998 2.8999 37.2998C2.6999 37.5998 2.4999 37.7998 2.3999 38.0998C2.1999 38.2998 2.0999 38.5998 1.8999 38.8998C1.7999 39.1998 1.5999 39.4998 1.4999 39.7998L1.1999 40.6998C1.0999 40.9998 1.0999 41.1998 0.999902 41.4998V41.5998C0.899902 41.8998 0.899902 42.2998 0.899902 42.4998C0.999902 42.3998 0.999902 42.5998 0.999902 42.7998V43.1998C0.999902 43.3998 1.0999 43.5998 1.0999 43.7998C1.1999 43.9998 1.1999 44.1998 1.2999 44.3998C1.3999 44.5998 1.4999 44.7998 1.6999 44.9998C1.7999 45.1998 1.9999 45.3998 2.0999 45.5998C2.2999 45.7998 2.4999 45.9998 2.6999 46.0998C2.8999 46.2998 3.0999 46.4998 3.2999 46.5998C4.0999 47.2998 4.2999 47.4998 5.2999 48.0998C5.4999 48.1998 5.5999 48.2998 5.7999 48.3998H5.8999V48.5998C5.8999 48.8998 5.9999 49.0998 6.0999 49.3998C6.1999 49.6998 6.2999 49.9998 6.3999 50.1998L6.6999 50.7998C6.6999 50.8998 6.7999 50.8998 6.7999 50.9998C6.8999 51.2998 7.0999 51.4998 7.1999 51.6998C7.3999 51.8998 7.4999 52.1998 7.6999 52.3998L8.2999 52.9998L8.8999 53.5998H8.9999C9.1999 53.7998 9.3999 53.8998 9.5999 54.0998C9.7999 54.2998 10.0999 54.3998 10.2999 54.4998C10.4999 54.5998 10.7999 54.7998 11.0999 54.8998C11.2999 54.9998 11.4999 55.0998 11.7999 55.0998C11.7999 55.0998 11.8999 55.0998 11.8999 55.1998C11.9999 55.1998 12.1999 55.2998 12.2999 55.2998C12.1999 57.0998 12.1999 58.7998 12.3999 59.3998C12.6999 60.0998 14.1999 57.9998 15.5999 55.6998C15.3999 57.9998 15.2999 60.6998 15.5999 61.4998C15.9999 62.2998 17.8999 59.6998 19.6999 56.8998C43.0999 51.4998 64.4999 67.6998 66.7999 90.5998C66.3999 86.9998 61.9999 84.9998 59.8999 85.4998C58.8999 87.8998 57.1999 91.0998 54.4999 92.9998C54.6999 90.7998 54.5999 88.5998 54.1999 86.3998C53.4999 89.3998 52.0999 92.2998 50.0999 94.6998C46.9999 94.8998 43.7999 93.3998 42.1999 91.0998C42.0999 90.9998 41.9999 90.7998 41.8999 90.6998C41.7999 90.4998 41.6999 90.1998 41.5999 89.9998C41.4999 89.7998 41.3999 89.4998 41.3999 89.2998V88.5998V88.0998C41.3999 87.8998 41.4999 87.5998 41.5999 87.3998C41.6999 87.1998 41.6999 86.8998 41.7999 86.6998C41.8999 86.4998 41.9999 86.1998 42.1999 85.9998C42.7999 84.3998 42.7999 83.0998 41.6999 82.3998L41.0999 82.0998C40.9999 82.0998 40.7999 81.9998 40.6999 81.9998C40.5999 81.9998 40.4999 81.8998 40.3999 81.8998C40.1999 81.7998 39.8999 81.7998 39.6999 81.6998C39.4999 81.5998 39.1999 81.5998 38.9999 81.5998C38.7999 81.5998 38.4999 81.4998 38.2999 81.4998H37.7999C37.4999 81.4998 37.2999 81.4998 37.0999 81.5998C36.8999 81.5998 36.5999 81.6998 36.3999 81.6998C36.1999 81.7998 35.8999 81.7998 35.6999 81.8998C35.4999 81.9998 35.2999 82.0998 34.9999 82.1998L34.3999 82.4998C26.6999 87.4998 31.2999 99.2998 36.4999 102.7C34.4999 103.1 32.4999 103.5 31.8999 103.9L31.7999 104C33.1999 104.9 34.6999 105.6 36.2999 106.2C38.3999 106.9 40.6999 107.5 41.6999 107.8C44.3999 108.4 47.1999 108.6 49.9999 108.4C64.5999 107.4 76.5999 96.1998 78.7999 81.5998C78.8999 81.8998 78.8999 82.1998 78.9999 82.4998C79.0999 83.0998 79.1999 83.6998 79.2999 84.3998C79.3999 84.6998 79.3999 84.9998 79.3999 85.2998V85.3998C79.3999 85.6998 79.4999 85.9998 79.4999 86.2998C79.4999 86.6998 79.5999 86.9998 79.5999 87.3998V91.5998C79.5999 91.8998 79.4999 92.0998 79.4999 92.3998V92.6998C79.4999 92.9998 79.3999 93.2998 79.3999 93.6998C79.2999 93.9998 79.2999 94.2998 79.1999 94.5998V94.6998C79.0999 94.9998 79.0999 95.2998 78.9999 95.5998V95.6998C78.8999 95.9998 78.8999 96.2998 78.7999 96.5998V96.6998L78.4999 97.5998V97.6998C78.3999 97.9998 78.2999 98.3998 78.1999 98.6998C78.0999 98.9998 77.9999 99.2998 77.7999 99.6998C77.6999 99.9998 77.5999 100.4 77.3999 100.7C77.2999 101 77.0999 101.3 76.9999 101.7C76.8999 102 76.6999 102.3 76.5999 102.6C76.5999 102.7 76.4999 102.8 76.4999 102.8C76.4999 102.8 76.4999 102.9 76.3999 102.9C74.2999 107.2 71.0999 111 67.0999 114C66.7999 114.2 66.5999 114.4 66.2999 114.6C66.1999 114.7 66.0999 114.7 66.0999 114.8C65.8999 115 65.5999 115.1 65.3999 115.3L65.4999 115.5C65.9999 115.4 66.3999 115.4 66.8999 115.3C67.7999 115.2 68.5999 115 69.4999 114.8C69.6999 114.8 69.9999 114.7 70.1999 114.6C70.3999 114.6 70.4999 114.5 70.6999 114.5C70.8999 114.5 71.1999 114.4 71.3999 114.4C71.5999 114.3 71.7999 114.3 71.9999 114.2C75.2999 113.4 78.4999 112.3 81.5999 111C76.2999 118.2 69.2999 124 61.0999 127.8C64.8999 127.5 68.6999 126.9 72.3999 125.8C85.6999 121.9 96.8999 112.9 103.6 100.8C102.2 108.4 99.1999 115.7 94.6999 122.1C97.8999 120 100.8 117.5 103.5 114.8C110.9 107.1 115.8 97.1998 117.4 86.6998C118.5 91.8998 118.9 97.2998 118.4 102.6C142.3 69.2998 120.4 34.7998 111.2 25.6998C111.2 25.5998 111.1 25.5998 111.1 25.4998C111.1 25.8998 111.1 26.2998 111 26.6998C110.9 27.4998 110.8 28.1998 110.7 28.8998C110.5 29.5998 110.3 30.3998 110.1 31.0998C109.9 31.7998 109.6 32.4998 109.3 33.1998C109 33.8998 108.7 34.5998 108.3 35.1998C107.9 35.7998 107.5 36.4998 107.1 37.0998C106.7 37.6998 106.2 38.2998 105.7 38.8998C105.2 39.4998 104.7 39.9998 104.1 40.5998C103.8 40.8998 103.5 41.1998 103.1 41.3998C102.8 41.5998 102.6 41.7998 102.3 42.0998C101.7 42.5998 101.1 42.9998 100.4 43.3998C99.7999 43.7998 99.0999 44.1998 98.3999 44.4998L96.2999 45.3998C95.5999 45.6998 94.8999 45.8998 94.1999 46.0998C93.4999 46.2998 92.6999 46.4998 91.9999 46.5998C91.1999 46.6998 90.4999 46.7998 89.7999 46.8998C89.2999 46.8998 88.6999 46.9998 88.1999 46.9998C87.3999 46.9998 86.6999 46.8998 85.9999 46.8998C85.1999 46.7998 84.4999 46.6998 83.7999 46.5998C82.9999 46.4998 82.2999 46.2998 81.5999 45.9998C82.2999 45.8998 83.0999 45.8998 83.7999 45.6998C84.5999 45.5998 85.2999 45.3998 85.9999 45.1998C86.6999 44.9998 87.4999 44.7998 88.0999 44.4998L90.1999 43.5998C90.8999 43.2998 91.4999 42.8998 92.1999 42.4998C92.7999 42.0998 93.4999 41.5998 94.0999 41.1998C94.6999 40.6998 95.2999 40.1998 95.7999 39.6998C96.3999 39.1998 96.8999 38.5998 97.3999 38.0998C97.8999 37.4998 98.3999 36.8998 98.7999 36.2998C98.8999 36.1998 98.8999 36.0998 98.9999 35.9998C99.2999 35.4998 99.6999 34.8998 99.9999 34.3998C100.4 33.6998 100.7 33.0998 101 32.3998C101.3 31.6998 101.6 30.9998 101.8 30.2998L102.4 28.1998C102.5 27.3998 102.7 26.6998 102.7 25.9998C102.8 25.1998 102.8 24.4998 102.8 23.7998C102.8 23.2998 102.8 22.6998 102.7 22.1998C102.6 21.3998 102.5 20.6998 102.4 19.9998C102.3 19.1998 102.1 18.4998 101.9 17.7998C101.7 17.0998 101.4 16.3998 101.2 15.6998C100.9 14.9998 100.6 14.2998 100.3 13.6998C99.8999 12.9998 99.5999 12.3998 99.1999 11.6998C98.7999 11.0998 98.2999 10.4998 97.8999 9.8998C97.3999 9.2998 96.8999 8.7998 96.3999 8.1998C96.0999 7.8998 95.7999 7.5998 95.4999 7.3998C93.9999 6.1998 92.4999 5.1998 90.8999 4.1998C90.6999 4.0998 90.4999 3.9998 90.1999 3.8998C88.8999 2.7998 87.8999 2.4998 86.8999 2.0998Z"
    fill="#DF234F"
  />
</svg>

<svg xmlns="http://www.w3.org/2000/svg" width="130" height="128" fill="none"><path fill="#DF234F" d="M76.4.3c-.9 0-1.8.2-2.6.5 1.7 1.1 2.6 2.6 3.1 4.3 0 .2.1.4.1.6s.1.4.1.6c.1 2.9-.8 3.3-1.4 5-1 2.2-.7 4.6.5 6.5.1.2.2.5.4.7-1.3-8.4 5.7-9.6 7-12.2.1-2.3-1.8-3.8-3.3-4.9C78.8.5 77.6.3 76.4.3m10.5 1.8c-.1.8 0 .6-.1 1 0 .3 0 .6-.1.9s-.1.5-.2.8-.2.5-.3.8c-.1.2-.2.4-.3.7-.1.1-.2.3-.3.4s-.1.2-.2.3c-.2.2-.3.5-.5.7l-.6.6c-.2.2-.4.4-.6.5-.7.5-1.5.9-2.2 1.4-.2.2-.5.3-.7.5s-.4.3-.6.5l-.6.6c-.2.2-.4.4-.5.7-.2.2-.3.5-.5.7-.1.3-.2.5-.4.8-.1.3-.2.5-.3.8s-.2.6-.2.8c0 .1 0 .3-.1.4 0 .1 0 .3-.1.4v1.4c0 .3 0 .5.1.8 0 .3.1.5.2.8s.2.5.3.8c.1.2.2.3.2.5l-7.6-2.9c-1.3-.4-2.5-.7-3.8-1-.7-.2-1.4-.3-2.1-.5q-3-.6-6-.9h-.2c-2-.2-3.9-.3-5.9-.3-1.5 0-2.9.1-4.3.2-2 .1-4 .4-6 .7l-1.5.3c-1 .2-2 .4-3 .7-.5.1-1 .3-1.5.4-.5.2-1 .4-1.4.6s-.7.3-1.1.5c-.1 0-.1 0-.2.1-.3.2-.6.3-.9.5-.1 0-.2.1-.2.1-.4.2-.7.4-1 .5-.2.1-.5.2-.7.3-.1.1-.2.1-.3.2-.3.2-.6.3-.9.5s-.6.3-.8.5-.5.3-.7.5c0 0-.1 0-.1.1-.2.1-.4.3-.6.5l-.1.1c-.2.1-.3.3-.5.4-.1 0-.1.1-.2.1-.2.1-.3.3-.5.4 0 .1-.1.1-.1.1l-.6.6-.1.1-.6.6s0 .1-.1.1l-.5.5c-.1.1-.2.1-.2.2l-.6.6c0 .1-.1.1-.1.2l-.8.8-.1.1c-.5.6-1.1 1.1-1.7 1.6s-1.2 1-1.9 1.5-1.3.9-2 1.3-1.4.7-2.1 1-1.4.6-2.1.8c-1.4.3-2.8.9-4 1 0-.5-.3-.4-.6-.4-.3.1-.6.1-.8.2-.3.1-.5.2-.8.3s-.5.2-.8.4c-.2.2-.5.3-.7.5s-.5.4-.7.6-.5.4-.7.6-.4.4-.6.7-.4.5-.5.8c-.2.2-.3.5-.5.8-.1.3-.3.6-.4.9l-.3.9c-.1.3-.1.5-.2.8v.1c-.1.3-.1.7-.1.9.1-.1.1.1.1.3v.4c0 .2.1.4.1.6.1.2.1.4.2.6s.2.4.4.6c.1.2.3.4.4.6.2.2.4.4.6.5.2.2.4.4.6.5.8.7 1 .9 2 1.5.2.1.3.2.5.3h.1v.2c0 .3.1.5.2.8s.2.6.3.8l.3.6c0 .1.1.1.1.2.1.3.3.5.4.7.2.2.3.5.5.7l.6.6.6.6H9c.2.2.4.3.6.5s.5.3.7.4.5.3.8.4c.2.1.4.2.7.2 0 0 .1 0 .1.1.1 0 .3.1.4.1-.1 1.8-.1 3.5.1 4.1.3.7 1.8-1.4 3.2-3.7-.2 2.3-.3 5 0 5.8.4.8 2.3-1.8 4.1-4.6 23.4-5.4 44.8 10.8 47.1 33.7-.4-3.6-4.8-5.6-6.9-5.1-1 2.4-2.7 5.6-5.4 7.5q.3-3.3-.3-6.6c-.7 3-2.1 5.9-4.1 8.3-3.1.2-6.3-1.3-7.9-3.6-.1-.1-.2-.3-.3-.4-.1-.2-.2-.5-.3-.7s-.2-.5-.2-.7v-1.2c0-.2.1-.5.2-.7s.1-.5.2-.7.2-.5.4-.7c.6-1.6.6-2.9-.5-3.6l-.6-.3c-.1 0-.3-.1-.4-.1s-.2-.1-.3-.1c-.2-.1-.5-.1-.7-.2s-.5-.1-.7-.1-.5-.1-.7-.1h-.5c-.3 0-.5 0-.7.1-.2 0-.5.1-.7.1-.2.1-.5.1-.7.2s-.4.2-.7.3l-.6.3c-7.7 5-3.1 16.8 2.1 20.2-2 .4-4 .8-4.6 1.2l-.1.1c1.4.9 2.9 1.6 4.5 2.2 2.1.7 4.4 1.3 5.4 1.6 2.7.6 5.5.8 8.3.6 14.6-1 26.6-12.2 28.8-26.8.1.3.1.6.2.9.1.6.2 1.2.3 1.9.1.3.1.6.1.9v.1c0 .3.1.6.1.9 0 .4.1.7.1 1.1v4.2c0 .3-.1.5-.1.8v.3c0 .3-.1.6-.1 1-.1.3-.1.6-.2.9v.1c-.1.3-.1.6-.2.9v.1c-.1.3-.1.6-.2.9v.1l-.3.9v.1c-.1.3-.2.7-.3 1s-.2.6-.4 1c-.1.3-.2.7-.4 1-.1.3-.3.6-.4 1-.1.3-.3.6-.4.9 0 .1-.1.2-.1.2s0 .1-.1.1c-2.1 4.3-5.3 8.1-9.3 11.1-.3.2-.5.4-.8.6-.1.1-.2.1-.2.2-.2.2-.5.3-.7.5l.1.2c.5-.1.9-.1 1.4-.2.9-.1 1.7-.3 2.6-.5.2 0 .5-.1.7-.2.2 0 .3-.1.5-.1s.5-.1.7-.1c.2-.1.4-.1.6-.2 3.3-.8 6.5-1.9 9.6-3.2-5.3 7.2-12.3 13-20.5 16.8 3.8-.3 7.6-.9 11.3-2 13.3-3.9 24.5-12.9 31.2-25-1.4 7.6-4.4 14.9-8.9 21.3 3.2-2.1 6.1-4.6 8.8-7.3 7.4-7.7 12.3-17.6 13.9-28.1 1.1 5.2 1.5 10.6 1 15.9 23.9-33.3 2-67.8-7.2-76.9 0-.1-.1-.1-.1-.2 0 .4 0 .8-.1 1.2-.1.8-.2 1.5-.3 2.2-.2.7-.4 1.5-.6 2.2s-.5 1.4-.8 2.1-.6 1.4-1 2-.8 1.3-1.2 1.9-.9 1.2-1.4 1.8-1 1.1-1.6 1.7c-.3.3-.6.6-1 .8-.3.2-.5.4-.8.7-.6.5-1.2.9-1.9 1.3-.6.4-1.3.8-2 1.1l-2.1.9c-.7.3-1.4.5-2.1.7s-1.5.4-2.2.5c-.8.1-1.5.2-2.2.3-.5 0-1.1.1-1.6.1-.8 0-1.5-.1-2.2-.1-.8-.1-1.5-.2-2.2-.3-.8-.1-1.5-.3-2.2-.6.7-.1 1.5-.1 2.2-.3.8-.1 1.5-.3 2.2-.5s1.5-.4 2.1-.7l2.1-.9c.7-.3 1.3-.7 2-1.1.6-.4 1.3-.9 1.9-1.3.6-.5 1.2-1 1.7-1.5.6-.5 1.1-1.1 1.6-1.6.5-.6 1-1.2 1.4-1.8.1-.1.1-.2.2-.3.3-.5.7-1.1 1-1.6.4-.7.7-1.3 1-2s.6-1.4.8-2.1l.6-2.1c.1-.8.3-1.5.3-2.2.1-.8.1-1.5.1-2.2 0-.5 0-1.1-.1-1.6-.1-.8-.2-1.5-.3-2.2-.1-.8-.3-1.5-.5-2.2s-.5-1.4-.7-2.1c-.3-.7-.6-1.4-.9-2-.4-.7-.7-1.3-1.1-2-.4-.6-.9-1.2-1.3-1.8-.5-.6-1-1.1-1.5-1.7-.3-.3-.6-.6-.9-.8-1.5-1.2-3-2.2-4.6-3.2-.2-.1-.4-.2-.7-.3-1.3-1.1-2.3-1.4-3.3-1.8"/></svg>
